src/icons/svg/editor.svg

<svg t="1604475629025" class="icon" viewBox="0 0 1024 1024" version="1.1" xmlns="http://www.w3.org/2000/svg" p-id="9422" width="200" height="200"><path d="M951.282712 0.003982C991.673622 0.003982 1024.441458 32.771818 1024.441458 73.162728c0 26.965199-14.791037 50.289526-36.579373 62.975685V877.795149c0 3.24265-0.568886 6.428412-0.967106 9.614174A72.817414 72.817414 0 0 1 951.282712 1023.998862c-40.390909 0-73.101857-32.767836-73.101856-73.158745H146.650291a73.158745 73.158745 0 0 1-146.260602 0c0-27.363419 15.246146-50.97219 37.546479-63.487683-0.455109-3.185762-0.967106-6.371524-0.967106-9.671062V136.195301A72.817414 72.817414 0 0 1 73.605323 0.003982c26.965199 0 50.289526 14.791037 62.975685 36.579373h751.726019A72.817414 72.817414 0 0 1 951.282712 0.003982zM768.442738 219.42333h-511.99744V365.797709h73.158745V292.582075h146.260602v402.259322H402.7059V768.000142h219.476236v-73.158745H549.02339V292.582075h146.260602v73.158745H768.442738V219.42333z" p-id="9423"></path></svg>

<svg class="icon" viewBox="0 0 1024 1024" xmlns="http://www.w3.org/2000/svg" width="200" height="200"><path d="M951.283.004c40.39 0 73.158 32.768 73.158 73.159 0 26.965-14.79 50.29-36.579 62.975v741.657c0 3.243-.569 6.429-.967 9.614A72.817 72.817 0 0 1 951.283 1024c-40.391 0-73.102-32.768-73.102-73.159H146.65a73.159 73.159 0 0 1-146.261 0c0-27.363 15.246-50.972 37.546-63.488-.455-3.185-.967-6.371-.967-9.67V136.194A72.817 72.817 0 0 1 73.605.004c26.966 0 50.29 14.791 62.976 36.58h751.726A72.817 72.817 0 0 1 951.283.003zm-182.84 219.42H256.445v146.374h73.159v-73.216h146.26v402.26h-73.158V768h219.476v-73.159h-73.159V292.582h146.261v73.159h73.159V219.423z"/></svg>
